X:1
T:The Doctor
M:6/8
L:1/8
K:A
 z4 z E| A3/2 B/2 c BBE| A3/2 B/2 c BBE| ecA FGA| cBA B2 B| cGB AAA|\
 A^EG FFc| e G3/2 A/2 BGE| B,C^D E2 E| A3/2 B/2 A F2 F| B3/2 c/2 B G2 E|\
 edc BFA| GEB A z2|

